X:1
T:J. S. Bach
T:BWV 988
T:Goldberg Variations: Variation XXI
%%score { ( 1 2 ) | 3 }
L:1/8
M:4/4
K:Bb
V:1 treble nm="Harp"
V:2 treble 
V:3 bass 
V:1
 z4 z/ A/B/c/ d/c/B/A/ | GdGc- c/^F/G/A/ B/A/G/F/ | G z2 G _AG^G=A | B/c/d/c/ B/A/G/_G/ e z2 c- | %4
 c/c/B/A/ B/c/d/=e/ fe f/g/a- | a/g/f/a/ g/f/=e/d/ d/4^c/4B/4c/4d/4c/4=B/ c/d/e | d z2 d ede=e | %7
 fga g2 _g/=e/ d/^c/d | z4 z/ A/B/c/ d/c/B/A/ | GdGc- c/^F/G/A/ B/A/G/F/ | G z2 G _AG^G=A | %11
 B/c/d/c/ B/A/G/_G/ e z2 c- | c/c/B/A/ B/c/d/=e/ fe f/g/a- | %13
 a/g/f/a/ g/f/=e/d/ d/4^c/4B/4c/4d/4c/4=B/ c/d/e | d z2 d ede=e | fga g2 _g/=e/ d/^c/d | %16
 z4 z/ _a/g/f/ =e/f/g/e/ | cd/e/ fB z/ f/e/d/ c/e/d/f/ | ef g2- g/f/g/_a/ d/c/d/f/ | %19
 B/c/d/B/ e_A- AG/F/ Ge- | ed/c/ d z z/ =E/F/G/ F/E/D/C/ | c/B/c ^F z2 d/c/ B/A/G/=F/ | %22
 E z2 c2 B AB/c/ | dF Ec- c/B/4A/4G/4A/4^F/ G2 | z4 z/ _a/g/f/ =e/f/g/e/ | %25
 cd/e/ fB z/ f/e/d/ c/e/d/f/ | ef g2- g/f/g/_a/ d/c/d/f/ | B/c/d/B/ e_A- AG/F/ Ge- | %28
 ed/c/ d z z/ =E/F/G/ F/E/D/C/ | c/B/c ^F z2 d/c/ B/A/G/=F/ | E z2 c2 B AB/c/ | %31
 dF Ec- c/B/4A/4G/4A/4^F/ G2 |] %32
V:2
 z/[I:staff +1] B,/C/D/ E/D/C/B,/ A,EA,D- | D/G,/A,/B,/ C/B,/A,/G,/ A,[I:staff -1] z z A, | %2
 B,A,B,=B, C/D/E/D/ C/[I:staff +1]_B,/A,/G,/ | %3
[I:staff -1] ^F z z D- D/[I:staff +1]D/C/B,/ C/[I:staff -1]D/=E/=F/ | %4
 G^F G/A/B- B/A/G/B/ A/G/=F/[I:staff +1]=E/ | E/4D/4E/4D/4E/4D/4^C/ D/=E/F E[I:staff -1] z z =E | %6
 F=EF^F GABA- | AG/F/ =E/D/E D2 z2 | z/[I:staff +1] B,/C/D/ E/D/C/B,/ A,EA,D- | %9
 D/G,/A,/B,/ C/B,/A,/G,/ A,[I:staff -1] z z A, | B,A,B,=B, C/D/E/D/ C/[I:staff +1]_B,/A,/G,/ | %11
[I:staff -1] ^F z z D- D/[I:staff +1]D/C/B,/ C/[I:staff -1]D/=E/=F/ | %12
 G^F G/A/B- B/A/G/B/ A/G/=F/[I:staff +1]=E/ | E/4D/4E/4D/4E/4D/4^C/ D/=E/F E[I:staff -1] z z =E | %14
 F=EF^F GABA- | AG/F/ =E/D/E D2 z2 | z/ B/A/G/ ^F/G/A/F/ D=E/=F/ GC | z/ G/F/E/ D/F/E/G/ FG A2- | %18
 A/G/_A/B/[I:staff +1] E/D/E/F/ C/D/E/C/ FB,- | B,_A,/G,/ A,[I:staff -1]F FE/D/ E z | %20
 z/[I:staff +1] ^F,/G,/A,/ G,/F,/=E,/D,/[I:staff -1] D/C/ D[I:staff +1] G,[I:staff -1] z | %21
 z E/D/ C/B,/A,/G,/ ^F, z z D- | DC =B,C/D/ E[I:staff +1]G, ^F,[I:staff -1]D | %23
 D/C/4B,/4A,/4B,/4[I:staff +1]G,/ _A,/G,^F,/ G,2[I:staff -1] z2 | z/ B/A/G/ ^F/G/A/F/ D=E/=F/ GC | %25
 z/ G/F/E/ D/F/E/G/ FG A2- | A/G/_A/B/[I:staff +1] E/D/E/F/ C/D/E/C/ FB,- | %27
 B,_A,/G,/ A,[I:staff -1]F FE/D/ E z | %28
 z/[I:staff +1] ^F,/G,/A,/ G,/F,/=E,/D,/[I:staff -1] D/C/ D[I:staff +1] G,[I:staff -1] z | %29
 z E/D/ C/B,/A,/G,/ ^F, z z D- | DC =B,C/D/ E[I:staff +1]G, ^F,[I:staff -1]D | %31
 D/C/4B,/4A,/4B,/4[I:staff +1]G,/ _A,/G,^F,/ G,2[I:staff -1] z2 |] %32
V:3
 G,,2 G,2 ^F,2 =F,2 | =E,2 _E,2 D,/A,,/B,,/C,/ D,D,, | G,,/D,/=E,/^F,/ G,/=F,/_E,/D,/ C,=B,,C,^C, | %3
 D,B,,C,D, G,2- G,/^F,/G,/A,/ | B,/C/D G,G D3 C | B,A,B,G, A,/=E,/F,/G,/ A,/=B,/^C/A,/ | %6
 D/F,/G,/A,/ D,/C/B,/A,/ G,/B,,/C,/D,/ G,,/G,^C,/ | D,/A,/ D2- D/^C/ z/ B,/A,/G,/ ^F,/A,/F,/D,/ | %8
 G,,2 G,2 ^F,2 =F,2 | =E,2 _E,2 D,/A,,/B,,/C,/ D,D,, | G,,/D,/=E,/^F,/ G,/=F,/_E,/D,/ C,=B,,C,^C, | %11
 D,B,,C,D, G,2- G,/^F,/G,/A,/ | B,/C/D G,G D3 C | B,A,B,G, A,/=E,/F,/G,/ A,/=B,/^C/A,/ | %14
 D/F,/G,/A,/ D,/C/B,/A,/ G,/B,,/C,/D,/ G,,/G,^C,/ | D,/A,/ D2- D/^C/ z/ B,/A,/G,/ ^F,/A,/F,/D,/ | %16
 D, D2 C =B, ^A,2 =A,/G,/ | A, _A,2 G, D,^D,^E,B,, | E, z2 E, _A,3 G,/F,/ | %19
 G,2- G,/F,/E,/D,/ E,/G,,/_A,,/B,,/ E,,/G,,/=A,,/=B,,/ | C,2 z C, B,,2 z B,, | %21
 A,,/G,,/A,,/B,,/ A,,/G,,/^F,,/=E,,/ D,,/C,/D,/E,/ D,/C,/B,,/A,,/ | %22
 G,,/F,/G,/_A,/ G,/F,/E,/D,/ C,/=B,,/C,/^C,/ D,/E,/D,/=C,/ | %23
 B,,/A,,/^A,,/=B,,/ C,D, G,,/D,/_B,,/D,/ G,/D,/B,,/G,,/ | D, D2 C =B, ^A,2 =A,/G,/ | %25
 A, _A,2 G, D,^D,^E,B,, | E, z2 E, _A,3 G,/F,/ | %27
 G,2- G,/F,/E,/D,/ E,/G,,/_A,,/B,,/ E,,/G,,/=A,,/=B,,/ | C,2 z C, B,,2 z B,, | %29
 A,,/G,,/A,,/B,,/ A,,/G,,/^F,,/=E,,/ D,,/C,/D,/E,/ D,/C,/B,,/A,,/ | %30
 G,,/F,/G,/_A,/ G,/F,/E,/D,/ C,/=B,,/C,/^C,/ D,/E,/D,/=C,/ | %31
 B,,/A,,/^A,,/=B,,/ C,D, G,,/D,/_B,,/D,/ G,/D,/B,,/G,,/ |] %32

